_includes/icons/color-region.svg

<svg fill="#666" height="50" viewBox="0 0 48 48" width="50" xmlns="http://www.w3.org/2000/svg"><path d="m24 4c-7.699219 0-14 6.300781-14 14s14 26 14 26 14-18.300781 14-26-6.300781-14-14-14z" fill="#9c27b0"/><path d="m21 18c0-1.699219 1.300781-3 3-3s3 1.300781 3 3-1.300781 3-3 3-3-1.300781-3-3zm7.898438-4.898437c2.703125 2.699218 2.703125 7.199218 0 9.898437-.199219.199219-.398438.398438-.597657.5l1.898438 2.300781c.300781-.199218.601562-.5.800781-.699218 3.898438-3.902344 3.898438-10.203125 0-14.101563-.300781-.300781-.5-.5-.800781-.699219l-1.898438 2.300782c.300782.097656.5.296875.597657.5zm-9.796875 9.796875c-1.402344-1.296875-2.101563-3-2.101563-4.898438 0-1.898437.699219-3.601562 2.101563-4.898437.199218-.203125.398437-.402344.597656-.5l-1.898438-2.300782c-.300781.199219-.601562.5-.800781.699219-3.898437 3.898438-3.898437 10.199219 0 14.101563.300781.296875.5.5.800781.699218l1.898438-2.300781c-.300781-.199219-.5-.398437-.597656-.601562z" fill="#f3e5f5"/></svg>

<svg xmlns="http://www.w3.org/2000/svg" viewBox="0 0 48 48" width="50" height="50" fill="#666"><path d="M 24 4 C 16.300781 4 10 10.300781 10 18 C 10 25.699219 24 44 24 44 C 24 44 38 25.699219 38 18 C 38 10.300781 31.699219 4 24 4 Z" fill="#9c27b0"/><path d="M 21 18 C 21 16.300781 22.300781 15 24 15 C 25.699219 15 27 16.300781 27 18 C 27 19.699219 25.699219 21 24 21 C 22.300781 21 21 19.699219 21 18 Z M 28.898438 13.101563 C 31.601563 15.800781 31.601563 20.300781 28.898438 23 C 28.699219 23.199219 28.5 23.398438 28.300781 23.5 L 30.199219 25.800781 C 30.5 25.601563 30.800781 25.300781 31 25.101563 C 34.898438 21.199219 34.898438 14.898438 31 11 C 30.699219 10.699219 30.5 10.5 30.199219 10.300781 L 28.300781 12.601563 C 28.601563 12.699219 28.800781 12.898438 28.898438 13.101563 Z M 19.101563 22.898438 C 17.699219 21.601563 17 19.898438 17 18 C 17 16.101563 17.699219 14.398438 19.101563 13.101563 C 19.300781 12.898438 19.5 12.699219 19.699219 12.601563 L 17.800781 10.300781 C 17.5 10.5 17.199219 10.800781 17 11 C 13.101563 14.898438 13.101563 21.199219 17 25.101563 C 17.300781 25.398438 17.5 25.601563 17.800781 25.800781 L 19.699219 23.5 C 19.398438 23.300781 19.199219 23.101563 19.101563 22.898438 Z" fill="#f3e5f5"/></svg>
